X:1
T:Title
%%score ( 1 2 ) { 3 | 4 }
L:1/8
Q:1/4=140
M:6/4
K:Eb
V:1 treble nm="Grand Piano, Soprano"
V:2 treble 
V:3 bass nm="Choir Pad, Lord, Is It I?"
V:4 bass 
V:1
 [EG]2 [EG]2 [EG]2 [B,F]2 [B,E]2 [B,F]2 | [EG]4 [EG]2 [EG]6 | [DA]2 [DA]2 [DA]2 [DG]2 [DF]2 [DG]2 | %3
w: By~Charles~Hutchinson~Gabriel * * * * *|||
 [DA]4 [DA]2 [DA]6 | [EG]2 [EG]2 [EG]2 [B,F]2 [B,E]2 [EG]2 | [EA]4 [EB]2 [Ec]6 | %6
w: |||
 [Ec]2 [EF]2 [EF]2 [Fd]6 | [Ge]2 [Fd]2 [Ec]2 [DB]6 | [Ge]2 [Gd]2 [Gc]2 [GB]2 [Gc]2 [_DG]2 | z6 B6 | %10
w: ||||
 [Ge]2 [Gd]2 [Gc]2 [GB]2 [Gc]2 [_DG]2 | z6 B6 | [GB]2 [Gc]2 [GB]2 [_DG]2 [DF]2 E2 | %13
w: |||
 [EA]2 [EA]2 [EB]2 [Ec]6 | [Ee]2 [Ed]2 [Ec]2 [EB]6 | [DB]2 [DF]2 [DG]2 [B,E]6- | [B,E]6 z6 |] %17
w: ||||
V:2
 x12 | x12 | x12 | x12 | x12 | x12 | x12 | x12 | x12 | [DAB]2 [FB]2 [EB]2 D2 E2 F2 | x12 | %11
 [DAB]2 [FB]2 [EB]2 D2 E2 F2 | x12 | x12 | x12 | x12 | x12 |] %17
V:3
 B,2 B,2 B,2 A,2 G,2 A,2 | B,4 B,2 B,6 | B,2 B,2 B,2 B,2 B,2 B,2 | B,4 B,2 B,6 | %4
 B,2 B,2 B,2 A,2 G,2 B,2 | A,4 G,2 A,6 | F,2 C2 C2 B,6 | =A,2 A,2 A,2 B,6 | B,2 B,2 B,2 E2 E2 B,2 | %9
 B,2 B,2 B,2 B,6 | B,2 B,2 B,2 E2 E2 B,2 | B,2 B,2 B,2 B,6 | _D2 D2 D2 B,2 A,2[K:bass] G,2 | %13
 A,2 A,2 G,2 A,6 | _G,2 G,2 G,2 =G,6 | F,2 A,2 B,2 G,6- | G,6 z6 |] %17
V:4
 E,2 E,2 E,2 E,2 E,2 E,2 | E,4 E,2 E,6 | B,,2 [B,,F,]2 [B,,F,]2 B,,2 B,,2 B,,2 | %3
 [B,,F,]4 B,,2 B,,6 | E,2 E,2 E,2 E,2 E,2 _D,2 | C,4 C,2 A,,6 | =A,,2 A,,2 A,,2 B,,6 | %7
 F,2 F,2 F,2 B,,6 | E,2 E,2 E,2 E,2 E,2 =E,2 | F,2 D,2 C,2 B,,2 C,2 D,2 | %10
 E,2 E,2 E,2 E,2 E,2 =E,2 | F,2 D,2 C,2 B,,2 C,2 D,2 | E,2 E,2 E,2 E,2 E,2 _D,2 | %13
 C,2 C,2 B,,2 A,,6 | =A,,2 A,,2 A,,2 B,,6 | B,,2 B,,2 B,,2 E,6- | E,6 z6 |] %17

